X: 1
T: Rakish Paddy
R: reel
M: 4/4
L: 1/8
Z: Contributed 2016-06-19 02:39:58 by Rob robertclothier@bigpond.com
K: Dmaj
"C"=c3 B c2 AB|"C"=cBAG EGFG|"D"Addc defe|"D"d=cAG FGAB|
"C"=c3 B c2 AB|"C"=cBAG EFGE|"D"DEFG AB=cA|"D"[1 dcAG FGAB :|]"D"[2 dcAG FD D2|]
"C"eg !roll!g2 ag !roll!g2|"C"eg !roll!g2 "Am"edcd|"D"ea !roll!a2 bg !roll!g2|"D"ea !roll!a2 edcd|
"C"eg !roll!g2 ag !roll!g2|"A7"efge "G"defg|"D"afge fdec|"D"[1dcAG FD D2:|]"D"[2dcAG FGAB|]

